X:375
T:Road to Columbus
C:Larry Rice solo
N:From the album "Rice Brothers I"I Transcribed by Tim Lee
R:bluegrass
L:1/8
Q:1/4=240
M:4/4
K:A
z4 E2 EE | "A"[=cE][^cE] z[cE] [cE]z [ec][eB] | A2 AA AB A2 | "D"=F^F [eA][eA] z2 AA | 
A2 E2 A2 B2 | "A"=ce [e^c][ec] z[eA] [ec][eB] | A2 AB cA Bc | "E"BF GB GF E2 | 
EE F2 AA2[=c^D] | [cE]"A"[cE] cA [ec][eB] A2 | AA AB A=F ^FA | "D"BA =cB A=F ^FA | 
BA =cB AF EA | A"A"=c ^ce ef =gf | "E"ec BA FB [e2A2] | "A"AA3 [AA][AA] [A2A2] | 
z2 [e2e2] a2 b2 | "A"c'c' c'c' c'e ab | a2 ab a=f ^fa | "D"ba =c'b a=f ^fa | "D"ba =c'b ac' ^c'e | 
"A"=c'b a2 fe ab | "A"af ef ea be | "E"^ae ge ^de eA | "E"^dA =dc A=c ^ce | "A"fe af e=c ^ce | 
"A"fe =gf e=c ^cA | "D"=cB AD FB3 | "D"{d}fa ba =c'2 b2 | "A"=c'2 b2 c'2 b2 | 
"E"=c'2 b2 be ef | a2 AB cA a2 | [a8c8A8] | 


